flaticon/design/sent-1.svg

<svg xmlns="http://www.w3.org/2000/svg" width="32" height="32" viewBox="0 0 24 24">
    <path d="M 23.601562 15.601562 C 23.820312 15.601562 24 15.421875 24 15.199219 L 24 9.601562 C 24 9.378906 23.820312 9.199219 23.601562 9.199219 L 15.199219 9.199219 L 15.199219 7.199219 L 18.398438 7.199219 C 18.5625 7.199219 18.707031 7.101562 18.769531 6.953125 C 18.832031 6.804688 18.796875 6.632812 18.683594 6.515625 L 12.28125 0.117188 C 12.125 -0.0390625 11.875 -0.0390625 11.71875 0.117188 L 5.316406 6.515625 C 5.203125 6.632812 5.167969 6.804688 5.230469 6.953125 C 5.292969 7.101562 5.4375 7.199219 5.601562 7.199219 L 8.800781 7.199219 L 8.800781 9.199219 L 0.398438 9.199219 C 0.179688 9.199219 0 9.378906 0 9.601562 L 0 15.199219 C 0 15.421875 0.179688 15.601562 0.398438 15.601562 L 8.800781 15.601562 L 8.800781 17.601562 L 0.398438 17.601562 C 0.179688 17.601562 0 17.777344 0 18 L 0 23.601562 C 0 23.820312 0.179688 24 0.398438 24 L 23.601562 24 C 23.820312 24 24 23.820312 24 23.601562 L 24 18 C 24 17.777344 23.820312 17.601562 23.601562 17.601562 L 15.199219 17.601562 L 15.199219 15.601562 Z M 23.199219 10 L 23.199219 14.800781 L 15.199219 14.800781 L 15.199219 10 Z M 0.800781 14.800781 L 0.800781 10 L 8.800781 10 L 8.800781 14.800781 Z M 23.199219 18.398438 L 23.199219 23.199219 L 0.800781 23.199219 L 0.800781 18.398438 L 9.199219 18.398438 C 9.421875 18.398438 9.601562 18.222656 9.601562 18 L 9.601562 6.800781 C 9.601562 6.578125 9.421875 6.398438 9.199219 6.398438 L 6.566406 6.398438 L 12 0.964844 L 17.433594 6.398438 L 14.800781 6.398438 C 14.578125 6.398438 14.398438 6.578125 14.398438 6.800781 L 14.398438 18 C 14.398438 18.222656 14.578125 18.398438 14.800781 18.398438 Z M 23.199219 18.398438"/>
</svg>

<svg xmlns="http://www.w3.org/2000/svg" width="32" height="32" viewBox="0 0 24 24">
    <path d="M23.602 15.602c.218 0 .398-.18.398-.403V9.602a.401.401 0 0 0-.398-.403h-8.403v-2h3.2a.401.401 0 0 0 .285-.683L12.28.117a.396.396 0 0 0-.562 0L5.316 6.516a.401.401 0 0 0 .285.684h3.2v2H.398A.401.401 0 0 0 0 9.601v5.597c0 .223.18.403.398.403h8.403v2H.398A.398.398 0 0 0 0 18v5.602A.4.4 0 0 0 .398 24h23.204a.4.4 0 0 0 .398-.398V18a.398.398 0 0 0-.398-.398h-8.403v-2zM23.199 10v4.8h-8V10zM.801 14.8V10h8v4.8zm22.398 3.598V23.2H.801v-4.8h8.398A.398.398 0 0 0 9.602 18V6.8a.402.402 0 0 0-.403-.402H6.566L12 .965l5.434 5.433H14.8a.402.402 0 0 0-.403.403V18c0 .223.18.398.403.398zm0 0"/>
</svg>
